public/logos/OV.svg

<?xml version="1.0" encoding="UTF-8"?>
<svg xmlns="http://www.w3.org/2000/svg" xmlns:xlink="http://www.w3.org/1999/xlink" width="176pt" height="22.2pt" viewBox="0 0 176 22.2" version="1.1">
<defs>
<clipPath id="clip1">
  <path d="M 0 0 L 30 0 L 30 22.199219 L 0 22.199219 Z M 0 0 "/>
</clipPath>
</defs>
<g id="surface1">
<g clip-path="url(#clip1)" clip-rule="nonzero">
<path style=" stroke:none;fill-rule:evenodd;fill:rgb(14.622498%,30.822754%,62.979126%);fill-opacity:1;" d="M 22.039062 19.121094 L 10.082031 11.941406 L 29.878906 0 C 29.878906 0 13.800781 1.152344 0 12.488281 L 16.238281 22.199219 L 16.238281 19.121094 L 22.039062 19.121094 "/>
</g>
<path style=" stroke:none;fill-rule:evenodd;fill:rgb(14.622498%,30.822754%,62.979126%);fill-opacity:1;" d="M 29.605469 19.121094 L 40.746094 19.121094 L 40.746094 16.542969 L 33.757812 16.542969 L 33.757812 12.261719 L 39.078125 12.261719 L 39.078125 9.953125 L 33.757812 9.953125 L 33.757812 6.171875 L 40.234375 6.171875 L 40.234375 3.589844 L 29.605469 3.589844 L 29.605469 19.121094 "/>
<path style=" stroke:none;fill-rule:evenodd;fill:rgb(14.622498%,30.822754%,62.979126%);fill-opacity:1;" d="M 42.539062 19.121094 C 43.566406 19.296875 45.105469 19.472656 46.917969 19.472656 C 51.933594 19.472656 52.671875 16.652344 52.671875 15.226562 C 52.671875 10.660156 46.179688 10.386719 46.179688 8.269531 C 46.179688 7.339844 47.269531 7.050781 48.007812 7.050781 C 49.242188 7.050781 50.460938 7.40625 51.613281 7.824219 L 51.613281 5.144531 C 50.234375 4.90625 48.824219 4.726562 47.429688 4.726562 C 44.960938 4.726562 42.429688 5.851562 42.429688 8.671875 C 42.429688 13.09375 48.695312 13.320312 48.695312 15.59375 C 48.695312 16.863281 47.351562 17.136719 46.355469 17.136719 C 45.058594 17.136719 43.742188 16.78125 42.539062 16.300781 L 42.539062 19.121094 "/>
<path style=" stroke:none;fill-rule:evenodd;fill:rgb(14.622498%,30.822754%,62.979126%);fill-opacity:1;" d="M 57.914062 19.121094 L 61.679688 19.121094 L 61.679688 7.421875 L 66.25 7.421875 L 66.25 5.066406 L 53.34375 5.066406 L 53.34375 7.421875 L 57.914062 7.421875 L 57.914062 19.121094 "/>
<path style=" stroke:none;fill-rule:evenodd;fill:rgb(14.622498%,30.822754%,62.979126%);fill-opacity:1;" d="M 66.089844 12.101562 C 66.089844 16.765625 69.132812 19.472656 73.703125 19.472656 C 78.285156 19.472656 81.316406 16.765625 81.316406 12.101562 C 81.316406 7.453125 78.285156 4.726562 73.703125 4.726562 C 69.132812 4.726562 66.089844 7.453125 66.089844 12.101562 Z M 70.0625 12.101562 C 70.0625 9.859375 71.039062 7.050781 73.703125 7.050781 C 76.363281 7.050781 77.324219 9.859375 77.324219 12.101562 C 77.324219 14.359375 76.363281 17.136719 73.703125 17.136719 C 71.039062 17.136719 70.0625 14.359375 70.0625 12.101562 "/>
<path style=" stroke:none;fill-rule:evenodd;fill:rgb(14.622498%,30.822754%,62.979126%);fill-opacity:1;" d="M 83.398438 19.121094 L 86.21875 19.121094 L 86.21875 10.691406 L 86.253906 10.691406 L 92.230469 19.121094 L 95.339844 19.121094 L 95.339844 5.066406 L 92.519531 5.066406 L 92.519531 13.496094 L 92.488281 13.496094 L 86.527344 5.066406 L 83.398438 5.066406 L 83.398438 19.121094 "/>
<path style=" stroke:none;fill-rule:evenodd;fill:rgb(14.622498%,30.822754%,62.979126%);fill-opacity:1;" d="M 98.546875 19.121094 L 102.296875 19.121094 L 102.296875 5.066406 L 98.546875 5.066406 L 98.546875 19.121094 "/>
<path style=" stroke:none;fill-rule:evenodd;fill:rgb(14.622498%,30.822754%,62.979126%);fill-opacity:1;" d="M 103.867188 19.121094 L 106.367188 19.121094 L 107.746094 15.546875 L 113.261719 15.546875 L 114.625 19.121094 L 118.390625 19.121094 L 113.003906 5.066406 L 109.253906 5.066406 Z M 108.597656 13.320312 L 110.503906 8.367188 L 112.414062 13.320312 L 108.597656 13.320312 "/>
<path style=" stroke:none;fill-rule:evenodd;fill:rgb(14.622498%,30.822754%,62.979126%);fill-opacity:1;" d="M 119.640625 19.121094 L 122.460938 19.121094 L 122.460938 10.691406 L 122.496094 10.691406 L 128.488281 19.121094 L 131.597656 19.121094 L 131.597656 5.066406 L 128.777344 5.066406 L 128.777344 13.496094 L 128.746094 13.496094 L 122.765625 5.066406 L 119.640625 5.066406 L 119.640625 19.121094 "/>
<path style=" stroke:none;fill-rule:evenodd;fill:rgb(14.622498%,30.822754%,62.979126%);fill-opacity:1;" d="M 138.90625 19.121094 L 141.679688 19.121094 L 143.203125 15.164062 L 149.296875 15.164062 L 150.800781 19.121094 L 154.984375 19.121094 L 149.023438 3.589844 L 144.871094 3.589844 Z M 144.132812 12.710938 L 146.25 7.230469 L 148.347656 12.710938 L 144.132812 12.710938 "/>
<path style=" stroke:none;fill-rule:evenodd;fill:rgb(14.622498%,30.822754%,62.979126%);fill-opacity:1;" d="M 156.828125 19.121094 L 160.578125 19.121094 L 160.578125 5.066406 L 156.828125 5.066406 L 156.828125 19.121094 "/>
<path style=" stroke:none;fill-rule:evenodd;fill:rgb(14.622498%,30.822754%,62.979126%);fill-opacity:1;" d="M 163.59375 19.121094 L 167.117188 19.121094 L 167.117188 13.496094 L 168.433594 13.496094 L 171.480469 19.121094 L 176 19.121094 L 171.496094 12.582031 C 173.003906 11.859375 174.125 10.304688 174.125 8.589844 C 174.125 6.058594 172.039062 5.066406 170.277344 5.066406 L 163.59375 5.066406 Z M 167.117188 7.40625 L 168.257812 7.40625 C 169.941406 7.40625 170.355469 8.046875 170.355469 9.007812 C 170.355469 10.035156 169.667969 11.398438 168.355469 11.398438 L 167.117188 11.398438 L 167.117188 7.40625 "/>
</g>
</svg>

<svg xmlns="http://www.w3.org/2000/svg" width="176pt" height="29.6" viewBox="0 0 176 22.2"><defs><clipPath id="a"><path d="M0 0h30v22.2H0Zm0 0"/></clipPath></defs><g clip-path="url(#a)"><path d="m22.04 19.121-11.958-7.18L29.879 0S13.8 1.152 0 12.488L16.238 22.2v-3.078z" style="stroke:none;fill-rule:evenodd;fill:#254fa1;fill-opacity:1"/></g><path d="M29.605 19.121h11.141v-2.578h-6.988v-4.281h5.32V9.953h-5.32V6.172h6.476V3.59H29.605zM42.54 19.121c1.026.176 2.565.352 4.378.352 5.016 0 5.754-2.82 5.754-4.246 0-4.567-6.492-4.84-6.492-6.957 0-.93 1.09-1.22 1.828-1.22 1.234 0 2.453.356 3.605.774v-2.68c-1.379-.238-2.789-.417-4.183-.417-2.47 0-5 1.125-5 3.945 0 4.422 6.265 4.648 6.265 6.922 0 1.27-1.343 1.543-2.34 1.543-1.296 0-2.613-.356-3.816-.836zM57.914 19.121h3.766v-11.7h4.57V5.067H53.344v2.356h4.57zM66.09 12.102c0 4.664 3.043 7.37 7.613 7.37 4.582 0 7.613-2.706 7.613-7.37 0-4.649-3.03-7.375-7.613-7.375-4.57 0-7.613 2.726-7.613 7.375m3.972 0c0-2.243.977-5.051 3.641-5.051 2.66 0 3.621 2.808 3.621 5.05 0 2.258-.96 5.036-3.62 5.036-2.665 0-3.641-2.778-3.641-5.035M83.398 19.121h2.82v-8.43h.036l5.976 8.43h3.11V5.066h-2.82v8.43h-.032l-5.96-8.43h-3.13zM98.547 19.121h3.75V5.066h-3.75zM103.867 19.121h2.5l1.38-3.574h5.515l1.363 3.574h3.766l-5.387-14.055h-3.75Zm4.73-5.8 1.907-4.954 1.91 4.953zM119.64 19.121h2.82v-8.43h.036l5.992 8.43h3.11V5.066h-2.82v8.43h-.032l-5.98-8.43h-3.125zM138.906 19.121h2.774l1.523-3.957h6.094l1.504 3.957h4.183l-5.96-15.531h-4.153Zm5.227-6.41 2.117-5.48 2.098 5.48zM156.828 19.121h3.75V5.066h-3.75zM163.594 19.121h3.523v-5.625h1.317l3.046 5.625H176l-4.504-6.539c1.508-.723 2.629-2.277 2.629-3.992 0-2.531-2.086-3.524-3.848-3.524h-6.683Zm3.523-11.715h1.14c1.684 0 2.098.64 2.098 1.602 0 1.027-.687 2.39-2 2.39h-1.238z" style="stroke:none;fill-rule:evenodd;fill:#254fa1;fill-opacity:1"/></svg>
